X:1
T: Old Molly Oxford - Fieldtown
M: 2/2
L: 1/8 
R: Morris
K:G
C: Trad 
Z: ABC  by Mackin
W: Music formula for morris dance: A.(AB)4
r: 32
P:A 
|: "G" g2 fg "D" a2 b2 | a2 gf "C" ef g2 | "D" f2 d2 "C" e2 c2 | "D" d2 dc Bc d2 | 
g2 gf "C" e2 dc | "G" B2 d2 g4 | "G" B2 Bc A2 F2 | "C" G4 "G" G4 :|
P:B
|: "G" dcBA G2 AB | "C" c2 d2 e2 f2 | "Am" gfed c2 d2 | efgb a2 fa|
"C" g2 eg "D" f2 d2 | "Am" dcBA "G" G2 AB | "D" dcBA "G" G2 AB| "C" c4 c4 :|